!!!!SEGMENT: pl-wnifc--6803-n--004_tymolski-fabian--mazury-na-peronie-op-142-mazur-no-3.krn
!!!cenid: 18xx:3995
!!!COM: Tymolski, Fabian
!!!COM-rismID: pe30006748
!!!CDT: 1828/01/14-1885
!!!CNT:
!!!OPR: Mazury „Na Peronie” op. 142
!!!OTL: [Mazur] No. 3
!!!OMV: 004
!!!PDT:
!!!AGN:
!!!SMS-siglum: PL-Wnifc
!!!SMS-shelfmark: 6803/n
!!!SMS-shelfwork: 001-004 M
!!!SMS-variant:
!!!SMS-altvar:
!!!NIFC-rismSourceID: 1001158046
!!!NIFC-rismChildID: 1001158239
!!!NIFC-islandoraID: nifc:213566
!!!URL-pdf-islandora: https://repozytorium.nifc.pl/islandora/object/nifc%3A213566/datastream/PDF/view
!!!URL-scan: https://polish.musicsources.pl/pl/lokalizacje/galeria/druki-muzyczne/16923 @EN{Scan on Polish Music Sources Website} @PL{Skany w portalu Dziedzictwo Muzyki Polskiej w otwartym dostępie}
!!!ONB-nifc: UWAGA: części: 1. Wstęp, 2. Mazur No. 1, 3. Mazur No. 2, 4. Mazur No. 3, 5. Zakończenie
!!!AIN: 2 piano
!!!key: D
**kern	**kern	**dynam
*part2	*part1	*part1
*staff2	*staff1	*
*I"[Piano]	*I"[Piano]	*
*I'pf	*I'pf	*
*ICklav	*ICklav	*
*Ipiano	*Ipiano	*
*clefF4	*clefG2	*
*k[f#c#]	*k[f#c#]	*
*D:	*D:	*
*M3/8	*M3/8	*
=1	=1	=1
!	!LO:TX:a:t=No 3.	!
8D\	8f#'\L 8a	mf
8A\L 8d 8f#	8a'\ 8dd	.
8A\J 8d 8f#	8dd'\J 8ff#	.
=2	=2	=2
8D\	16dd\ 16ff# 16bb	.
.	16r	.
8A\L 8d 8f#	4dd^\ 4ff# 4aa	.
8A\J 8d 8f#	.	.
=3	=3	=3
.	16qqcc#/LL	.
.	16qqgg/JJ	.
8AA/	8.bb\L	.
8A\L 8c# 8g	.	.
.	16aa\L	.
8A\J 8c# 8g	16gg\	.
.	16ee\JJ	.
=4	=4	=4
8D\	16bb\LL	.
.	16aa\JJ	.
8A\L 8d 8f#	8ff#\L	.
8A\J 8d 8f#	8dd\J	.
=5	=5	=5
8D\L 8d	16f#'/LL 16a	f
.	16f#'/JJ 16a	.
8AA\ 8A	8f#'\L 8a 8dd	.
8FF#\J 8F#	8a'\J 8dd 8ff#	.
!!LO:LB:g=original	!	!
=6	=6	=6
16DD/ 16D	16dd'\ 16ff# 16bb	.
16r	16r	.
4D^\ 4F# 4A 4d	4dd^\ 4ff# 4aa	.
=7	=7	=7
8AA\L 8A	16bb'\LL	.
.	16aa'\JJ	.
!	!LO:TUP:a:problem:klamra łukowa	!
8C#\ 8c#	24gg\LL	.
.	24aa\	.
.	24gg\JJ	.
8AA\J 8A	16ff#\LL	.
.	16ee\JJ	.
=8	=8	=8
8D\L	8dd\L	.
!	!LO:TX:i:B:b:t=Fine.	!
8D\J 8F# 8A 8d	8f#\J 8a 8dd	.
8r	8r	.
=9:|!|:	=9:|!|:	=9:|!|:
*k[f#c#g#]	*k[f#c#g#]	*
*	*^	*
!	!LO:TX:t=P:problem:Oznaczenia tonacji za końcem repetycji	!	!
8AA/	16cc#/LL	8e\L	f
.	16dd/JJ	.	.
8E\L 8A 8c#	8ee/L	8e\	.
8E\J 8A 8d	8dd^/J	8e\J	.
=10	=10	=10	=10
8AA/	8cc#/L	8e\L	.
8E\L 8A 8c#	8cc#/	8e\	.
8E\J 8A 8d	8b^/J	8e\J	.
!!LO:LB:g=original	!	!	!
=11	=11	=11	=11
8AA/	16a/LL	8e\L	.
.	16b/JJ	.	.
8E\L 8A 8c#	8cc#/L	8e\	.
8E\J 8G# 8d	8dd^/J	8e\J	.
=12	=12	=12	=12
8AA/	8cc#/L	8e\L	.
8E\L 8A 8c#	8cc#/	8e\	.
8E\J 8G# 8d	8b^/J	8e\J	.
*	*v	*v	*
=13	=13	=13
8AA/	16a'\LL	p
.	16b'\JJ	.
8E\L 8A 8c#	8cc#'\L	.
8F#\J 8A 8d	(16dd\L	.
.	16ff#\JJ)	.
=14	=14	=14
8AA/	(4ee\	.
8E\L 8A 8c#	.	.
8E\J 8G# 8d	8dd\)	.
=15	=15	=15
8A\ 8c#	8cc#\	f
8A\L 8c# 8e	(16cc#\LL	.
.	16a\JJ)	.
8E\J 8G# 8B 8e	(16b/LL	.
.	16g#/JJ)	.
=16	=16	=16
8A\L 8c# 8e	8a\L	.
8AA^\J 8A	8a^\J 8cc# 8ee 8aa	.
!LO:TX:b:i:t=Da capo al fine.	!	!
8r	8r	.
!!LO:PB:g=original	!	!
=17:|!	=17:|!	=17:|!
*k[f#]	*k[f#]	*
*M3/8	*M3/8	*
!	!LO:TX:a:B:t=Trio.	!
!	!LO:TX:a:B:t=Pastorale.	!
4.GG^/ 4.D	4G^/ 4d	f
.	8G/ 8d	.
=18	=18	=18
4.GG/ 4.D	4G^/ 4d	.
.	8G/ 8d	.
=19	=19	=19
8GG/L 8D	8G/L 8d	.
8GG/ 8D	8G/ 8d	.
8GG/J 8D	8G/J 8d	.
=20	=20	=20
8GG/L 8D	16G/LL 16d	.
.	16G/JJ 16d	.
8GG/ 8D	8G/L 8d	.
8GG/J 8D	8G/J 8d	.
=21	=21	=21
!	!LO:TUP:a:problem:klamra łukowa	!
8GG/L 8D 8G	24gg\LL	p
.	24aa\	.
.	24gg\JJ	.
8GG/ 8D 8G	16dd\LL	.
.	16b\	.
8GG/J 8D 8F#	16a\	.
.	16cc\JJ	.
=22	=22	=22
8GG/L 8D 8G	8.b\L	.
8GG/ 8D 8G	.	.
.	16dd\L	.
8GG/J 8D 8F#	16a\	.
.	16cc\JJ	.
!!LO:LB:g=original	!	!
=23	=23	=23
8GG/L 8D 8G	8.b\L	.
8GG/ 8D 8G	.	.
.	16dd\L	.
8GG/J 8D 8F#	16a\	.
.	16cc\JJ	.
=24	=24	=24
!	!LO:TUP:a:problem:klamra łukowa	!
8GG/L 8D 8G	24b\LL	.
.	24cc\	.
.	24b\JJ	.
8GG/ 8D 8G	8a\L	.
8GG/J 8D 8F#	8dd\J	.
=25	=25	=25
!	!LO:TUP:a:problem:klamra łukowa	!
8GG/L 8D 8G	24gg\LL	.
.	24aa\	.
.	24gg\JJ	.
8GG/ 8D 8G	16dd\LL	.
.	16b\	.
8GG/J 8D 8F#	16a\	.
.	16cc\JJ	.
=26	=26	=26
8GG/L 8D 8G	8.b\L	.
8GG/ 8D 8G	.	.
.	16dd\L	.
8GG/J 8D 8F#	16a\	.
.	16cc\JJ	.
=27	=27	=27
8GG/ 8G	8b\L	f
8G\L 8B 8d	16b'\L	.
.	16dd'\	.
8D\J 8F# 8A 8d	16a'\	.
.	16dd'\JJ	.
=28	=28	=28
8G\L 8B 8d	8g\L	.
8G\J 8B 8d	8b\J 8gg	.
!LO:TX:b:B:i:t=Mazur No.1.	!	!
8r	8r	.
==	==	==
*-	*-	*-
!!!system-decoration: {(s1,s2)}
!!!RDF**kern: > = above
!!!RDF**kern: < = below
!!!ENC: Filip Voros
!!!END: 2022-08-03
!!!ENC: Jan Barakat
!!!END: 2022-09-08
!!!YEC: Copyright 2022 Narodowy Instytut Fryderyka Chopina (https://polishscores.org)
!!!YEM: License CC-BY-4.0 (https://creativecommons.org/licenses/by/4.0)
